X:1
T:Quasi adagio
T:Song
T:Béla Bartók Revised and Arranged by the Composer, January 1945 
T:Book 1 (after Hungarian Folksongs)
T:For Children Nr 9, Sz 42
C:Bela bartok
%%score { 1 | 2 }
L:1/8
Q:1/4=84
M:2/4
K:D
V:1 treble nm="Piano"
V:2 bass 
V:1
"^Adagio,"!p!!<(! !tenuto!!4!A2 (!3!A2 | B2 A2) | (!^!^G4-!<)! |!>(! G4 | A4)!>)! |"_1" z4 | %6
!p!!<(! !tenuto!!4!A2 (!3!A2 | B2 A2) | (!^!^G4-!<)! |!>(! G4 | A4)!>)! | %11
"_1"[Q:1/4=112]"^Poco più vivo,"!p! z4 |"_poco scherzando" !tenuto!.!3!A2 (.!2!AB | %13
!<(! .A) !1!G3!<)! |!>(! (!3!F4 | !1!D2)!>)! z2 |!pp! !3!A2 (!2!AB | .A) G3 |!>(! (!3!F4 | %19
 D2)!>)! z2 |[Q:1/4=84]"^Tempo I." !tenuto!A2!p! (A2 | B2 A2) | (!>!^G4- |!>(! G4 | A4)!>)! | %25
"_1" z4 |!<(! (!2!B2 !3!c2 | !4!d2 !1!A2)!<)! | (!^!!2!^G4- |!>(! G4 | !3!A4)!>)! |"_1" z4 | %32
!p![Q:1/4=112]"^Poco più vivo" !3!G2"_poco scherzando" (!2!GA | A) G3 | (!3!F4 | F2) z2 | %36
 (!3!A2 !2!AB) | A G3 | (!3!F4 | D2) z2 |[Q:1/4=84]"^Tempo I." !tenuto!!3!A2 !tenuto!!2!A2 | %41
 (!1!G2 !3!F2) | !2!E4- | E4 | D4 |"_1" z4 |] %46
V:2
 z4 | z4 | (!3
5
![D,=F,]4- | [D,F,]4 | !2
5
![D,^F,]4) | z4 | z4 | !3
5
![D,F,]4 | %8
 (!4
5
![^D,E,]4- | [D,E,]4 | !1
3
![F,C]4) | z4 | z4 | !2
4
![A,C]4 | (!2
4
![^A,C]4 | %15
 !3!B,2) z2 | z4 | !4!!2

![A,C]4 | ((!1
5
![D,A,]4 | !3![D,F,]2)) z2 | z4 | !1
3
![DF]4 | %22
 (!1
2
![D^E]4- | [DE]4 | !5!!3

![F,C]4) | z4 | z4 | (!2
4
![G,B,]2 !1
5
![F,C]2) | ([^E,D]4- | %29
 [E,D]4 | !2
4
![F,C]4) | z4 | z4 | !2
4
![A,C]4 | (!2
4
![^A,C]4 | B,2) z2 | z4 | !2
4
![A,C]4 | %38
 !1
5
![F,=C]4 | z4 | z4 | !2
4
![G,B,]4 | (!2
3
![A,-B,]4 | [A,C]4) | !1
3
5
![D,F,A,]4 | z4 |] %46

